X: 4
T: Laura Lynn Cunningham
R: reel
M: 4/4
L: 1/8
K: Bmin
B2 cA BF F2 |EFAB ceae |fB B2 FBBc |Acef c2 BA |
BbbB a2 fe | cfec ecAc |BF F2 ABce |f2 ec B2 BA :|
|:FB B2 Ac c2 |d2 fd eAcA |FBB2 FBBc |Acef c2 BA |
[1 FB B2 ABce |d2 fd eAcA |B2 fB ecAB |BAdc B2 BA :|]
[2BbbB a2 fe | cfec ecAc |BF F2 ABce |f2 ec B2 BA |]


Tune 699	Setting 13764

